X:1
T:Wonderful Savior, Redeemer
T:Wellington K. Jacobs, 1902
T:Wonderful Savior, Redeemer
T:Public Domain
T:Public Domain
C:Wellington K. Jacobs, 1902
Z:Public Domain
%%score ( 1 2 ) ( 3 4 )
L:1/8
M:6/8
K:D
V:1 treble 
V:2 treble 
V:3 bass 
V:4 bass 
V:1
 [FA]>[GB][FA] [DF][FA][Fd] | [Gd]3 [Gc]3 | [CE]2 [DF] [EG]2 [Gc] | ([GB]3 [FA]3) | %4
w: 1.~Won- der- ful Sav- ior, Re-|deem- er,|Thou in ten- d’rest|love *|
w: 2.~Thou hast in great- est com-|pas- sion|Died our souls to|save; *|
w: 3.~O- pen my heart e’er to|hear Thee,|Quick to hear Thy|voice; *|
 [FA]>[GB][FA] [DF][FA][Fd] | [Ge]3 [GB]3 | [Gc]2 [GB] [GA]2 [Gc] | [Fd]6 ||"^Refrain" [FA-]3 ABA | %9
w: Watch- est o’er ev- ery be-|liev- er,|From Thy throne a-|bove.||
w: Pur- chased for us our re-|demp- tion,|Hope be- yond the|grave.|Won- * der- ful|
w: Fill Thou my soul with Thy|prais- es,|Let my heart re-|joice.||
 (GGG) (E2 E) | [Gc-]3 cBA | (GGG) (F2 F) | [Fd]3 [Fd][Gc][Fd] | (e2 d) [Gc]2 [GB] | %14
w: |||||
w: ior! * * Mer- *|Sav- * ior! My|and * * Re- *|Who shed His blood|for * me. *|
w: |||||
 [FA]2 [FA] [GB]2 [Gc] | (F2 G F3) |] %16
w: ||
w: ||
w: ||
V:2
 x6 | x6 | x6 | x6 | x6 | x6 | x6 | x6 || x3 F3 | A3 G3 | x3 G3 | B3 A3 | x6 | E3 x3 | x6 | d6 |] %16
w: ||||||||||||||||
w: ||||||||Sav-|ci- ful|hope|deem- er,|||||
V:3
 [D,D]>[D,D][D,D] [D,A,][D,D][D,A,] | [E,A,]3 [E,A,]3 | [A,,A,]2 [A,,A,] [A,,A,]2 [A,,E] | [D,D]6 | %4
w: ~ ~ ~ ~ ~ ~|~ ~|~ ~ ~ ~|~|
 [D,D]>[D,D][D,D] [D,A,][D,D][D,D] | [G,B,]3 [G,D]3 | A,2 [A,C] [A,,C]2 [A,,E] | [D,A,]6 || %8
w: ~ ~ ~ ~ ~ ~|~ ~|~ ~ ~ ~|Jesus,|
 [D,D-]3 DDD | E,E,E, A,2 A, | [A,E-]3 EDC | D,D,D, D,2 D, | [D,A,]3 [D,A,][E,A,][F,D] | %13
w: ~ * ~ won-|ful Sav- ior! Jesus, ~|ci- * ful Sav-|~ ~ ~ ~ ~|~ ~ ~ ~|
 [G,B,]3 [G,E]2 D | [A,D]2 [A,D] [A,C]2 [A,E] | D2 B, A,3 |] %16
w: ~ for me.|||
V:4
 x6 | x6 | x6 | x6 | x6 | x6 | A,2 x4 | x6 || x3 D,3 | C3 C3 | x3 A,3 | D3 D3 | x6 | x6 | x6 | %15
w: ||||||~||der-|~ mer-|ior!|~ ~||||
 D,6 |] %16
w: |

